usr/share/icons/biglinux-icons-material/symbolic/places/user-trash-symbolic.svg

<svg width="16" height="16" version="1.1" viewBox="0 0 16 16" xmlns="http://www.w3.org/2000/svg">
 <defs>
  <style id="current-color-scheme" type="text/css">.ColorScheme-Text { color:#dedede; }</style>
 </defs>
 <path d="m6 0c-0.554 0-1 0.446-1 1v1h-4v1h1v12c0 0.554 0.446 1 1 1h9c0.554 0 1-0.446 1-1v-12h1v-1h-4v-1c0-0.554-0.446-1-1-1h-3zm0 1h3v1h-3v-1zm-3 2h3 3 3v12h-9v-12z" fill="#dedede" stroke-linecap="round" stroke-linejoin="round" stroke-width="1.5" style="paint-order:stroke fill markers"/>
 <rect x="5" y="5" width="1" height="8" rx="0" ry="0" fill="#dedede" stroke-linecap="round" stroke-linejoin="round" stroke-width="1.5" style="paint-order:stroke fill markers"/>
 <rect x="7" y="5" width="1" height="8" rx="0" ry="0" fill="#dedede" stroke-linecap="round" stroke-linejoin="round" stroke-width="1.5" style="paint-order:stroke fill markers"/>
 <rect x="9" y="5" width="1" height="8" rx="0" ry="0" fill="#dedede" stroke-linecap="round" stroke-linejoin="round" stroke-width="1.5" style="paint-order:stroke fill markers"/>
</svg>

<svg xmlns="http://www.w3.org/2000/svg" width="16" height="16"><defs><style id="current-color-scheme" type="text/css">.ColorScheme-Text{color:#dedede}</style></defs><path fill="#dedede" stroke-linecap="round" stroke-linejoin="round" stroke-width="1.5" d="M6 0c-.554 0-1 .446-1 1v1H1v1h1v12c0 .554.446 1 1 1h9c.554 0 1-.446 1-1V3h1V2h-4V1c0-.554-.446-1-1-1H6zm0 1h3v1H6V1zM3 3h9v12H3V3z" style="paint-order:stroke fill markers"/><rect width="1" height="8" x="5" y="5" fill="#dedede" stroke-linecap="round" stroke-linejoin="round" stroke-width="1.5" rx="0" ry="0" style="paint-order:stroke fill markers"/><rect width="1" height="8" x="7" y="5" fill="#dedede" stroke-linecap="round" stroke-linejoin="round" stroke-width="1.5" rx="0" ry="0" style="paint-order:stroke fill markers"/><rect width="1" height="8" x="9" y="5" fill="#dedede" stroke-linecap="round" stroke-linejoin="round" stroke-width="1.5" rx="0" ry="0" style="paint-order:stroke fill markers"/></svg>
